<?xml version="1.0" encoding="UTF-8"?>
<map version="1.10" tiledversion="1.11.2" orientation="orthogonal" renderorder="right-down" width="50" height="50" tilewidth="32" tileheight="32" infinite="0" nextlayerid="2" nextobjectid="1">
 <tileset firstgid="1" source="tileset.tsx"/>
 <layer id="1" name="Vrstva dlaždic 1" width="50" height="50">
  <data encoding="csv">
1,1,1,1,1,1,1,1,1,1,1,1,1,1,1,1,1,1,1,1,1,1,1,1,1,1,1,1,1,1,1,1,1,1,1,1,1,1,1,1,1,1,1,1,1,1,1,1,1,1,
1,1,1,1,1,1,1,1,1,1,1,1,1,1,1,1,1,1,1,1,1,1,1,1,1,1,1,1,1,1,1,1,1,1,1,1,1,1,1,1,1,1,1,1,1,1,1,1,1,1,
1,1,1,1,1,1,1,1,1,1,1,1,1,1,1,1,1,1,1,1,1,1,1,1,1,1,1,1,1,1,1,1,1,1,1,1,1,1,1,1,1,1,1,1,1,1,1,1,1,1,
1,1,1,1,1,1,1,1,1,1,1,1,1,1,1,1,1,1,1,1,1,1,1,1,1,1,1,1,1,1,1,1,1,1,1,1,1,1,1,1,1,1,1,1,1,1,1,1,1,1,
1,1,1,1,1,1,1,1,1,1,1,1,1,1,1,1,1,1,1,1,1,1,1,1,1,1,1,1,1,1,1,1,1,1,1,1,1,1,1,1,1,1,1,1,1,1,1,1,1,1,
1,1,1,1,1,1,1,1,2,2,2,2,1,1,1,1,1,1,1,1,1,1,1,1,1,1,1,1,2,1,1,1,1,1,1,1,1,1,1,1,1,1,1,1,1,1,1,1,1,1,
1,1,1,3,3,3,3,1,2,1,1,2,1,1,1,1,1,1,1,1,1,1,1,1,1,3,3,3,2,3,3,1,1,1,1,1,1,1,1,1,3,3,3,3,3,3,1,1,1,1,
1,1,3,3,3,3,3,1,2,1,1,2,1,1,1,1,1,1,1,1,1,1,1,3,3,3,3,3,2,3,3,1,1,1,1,1,1,3,3,3,3,3,3,3,3,3,3,3,1,1,
1,1,3,3,3,3,3,1,2,1,1,2,1,1,1,1,1,1,1,1,1,1,3,3,3,3,3,2,2,2,3,1,1,1,1,1,3,3,3,3,3,3,3,3,3,3,3,3,3,1,
1,1,3,3,3,3,1,1,2,2,2,2,3,3,3,1,1,1,1,1,2,2,2,2,2,2,2,2,2,2,2,1,1,1,1,1,3,3,3,3,3,3,3,3,3,3,3,3,1,1,
1,1,3,3,3,3,1,1,1,3,3,3,3,3,3,3,1,1,1,1,1,3,3,3,3,3,3,2,2,2,1,1,1,1,1,1,1,3,3,3,3,3,3,3,3,3,3,3,1,1,
1,1,3,3,3,1,1,1,1,3,3,3,3,3,3,1,1,1,1,1,1,3,3,3,3,3,3,3,2,1,1,1,1,1,1,1,1,1,1,1,1,1,1,3,3,3,3,1,1,1,
1,1,1,2,2,1,1,1,3,3,3,3,3,3,1,1,1,1,1,1,1,3,3,3,3,3,3,3,2,1,1,1,1,1,1,1,1,1,1,1,1,1,1,1,1,1,1,1,1,1,
2,2,2,2,2,2,1,3,3,3,3,3,3,3,1,1,1,1,1,1,1,1,1,1,1,1,1,1,1,1,1,1,1,1,1,1,1,1,1,2,1,1,1,1,1,1,1,1,1,1,
2,2,2,2,2,2,1,3,3,3,3,3,3,3,1,1,1,1,1,1,1,1,1,1,1,1,1,1,1,1,1,1,1,1,1,1,1,3,3,2,1,1,1,1,1,1,1,1,1,1,
2,2,2,2,2,2,1,3,3,3,3,3,3,1,1,1,1,1,1,1,1,1,2,1,1,1,1,1,1,1,1,1,1,1,1,1,3,3,3,2,3,3,3,3,1,1,1,1,1,1,
2,2,2,2,2,2,1,3,3,3,3,3,3,1,1,1,1,1,1,1,1,2,2,2,3,3,1,1,1,1,1,1,1,1,1,3,3,3,3,2,3,3,3,3,1,1,1,1,1,1,
2,2,2,2,2,2,1,1,3,3,3,3,3,1,1,1,1,1,1,1,3,3,2,3,3,3,3,1,1,1,1,1,1,1,1,3,3,3,2,2,2,3,3,3,3,3,3,1,1,1,
2,2,2,2,2,2,1,1,1,1,3,3,1,1,1,1,1,1,1,3,3,3,2,3,3,3,3,3,1,1,1,1,1,1,3,3,3,2,2,2,2,2,3,3,3,3,3,3,3,1,
2,2,2,2,2,2,1,1,1,1,1,1,1,1,1,1,1,1,3,3,3,3,2,3,3,3,3,3,1,1,1,1,1,1,2,2,2,2,2,2,2,2,2,2,2,2,2,2,2,2,
1,1,1,1,1,1,1,1,1,1,1,1,1,1,1,1,1,3,3,3,3,3,2,3,3,3,3,3,1,1,1,1,1,1,3,3,3,2,2,2,2,2,3,3,3,3,3,3,3,2,
1,1,1,3,3,3,3,1,1,1,1,1,1,1,1,1,1,3,3,3,3,3,2,3,3,3,3,3,1,1,1,1,1,1,3,3,3,3,2,2,2,3,3,3,3,3,3,3,1,1,
1,1,1,3,3,3,3,3,1,1,1,1,1,1,1,1,1,2,3,3,3,3,2,3,3,3,2,3,1,1,1,1,1,1,3,3,3,3,3,2,3,3,3,3,3,3,3,3,1,1,
1,1,1,3,3,3,3,3,3,1,1,1,1,1,1,1,2,2,2,2,2,2,2,2,2,2,2,2,1,1,1,1,1,1,3,3,3,3,3,2,3,3,3,3,3,3,3,1,1,1,
1,1,1,1,3,3,3,3,3,1,1,1,1,1,1,1,1,2,3,3,3,3,2,3,3,3,2,1,1,1,1,1,1,1,1,3,3,3,3,2,3,3,3,3,3,3,3,1,1,1,
1,1,1,1,1,1,3,3,3,1,2,1,1,1,1,1,1,3,3,3,3,3,2,3,3,3,1,1,1,1,1,1,1,1,1,1,3,3,3,2,3,3,3,3,3,3,1,1,1,1,
1,1,1,1,1,1,1,1,1,2,1,2,1,1,1,1,1,3,3,3,3,3,2,3,3,1,1,1,1,1,1,1,1,1,1,1,3,3,1,2,3,3,3,3,3,1,1,1,1,1,
1,1,1,1,1,1,1,1,2,1,2,1,2,1,1,1,1,3,3,3,3,3,2,3,1,1,1,1,1,1,1,1,1,1,1,1,1,1,1,1,1,1,1,1,1,1,1,1,1,1,
1,1,1,1,3,1,1,2,1,2,1,2,1,2,1,1,1,1,3,3,3,3,2,1,1,1,1,1,1,1,1,1,1,1,1,1,1,1,1,1,1,1,1,1,1,1,1,1,1,1,
1,1,1,3,3,1,2,1,2,1,2,1,2,1,2,1,1,1,1,3,3,2,2,2,1,1,1,1,1,1,1,3,3,3,3,1,1,1,1,1,2,2,2,2,2,2,2,2,2,1,
1,1,3,3,3,3,1,2,1,2,1,2,1,2,1,1,1,1,1,1,1,1,2,1,1,1,1,1,1,1,3,3,3,3,3,3,3,3,1,1,1,2,2,2,2,2,2,2,2,1,
1,1,3,3,3,3,3,1,2,1,2,1,2,1,1,1,1,1,1,1,1,1,1,1,1,1,1,1,1,1,3,3,3,3,3,3,3,3,1,1,1,1,2,2,2,2,2,2,2,1,
1,3,3,3,3,3,1,1,1,2,1,2,1,1,1,1,1,1,1,1,1,1,1,1,1,1,1,1,1,3,3,3,3,3,3,3,3,3,3,3,1,1,1,2,2,2,2,2,2,1,
1,3,3,3,3,3,1,1,1,1,2,1,1,1,1,1,1,1,1,1,1,1,1,1,1,1,1,1,1,3,3,3,3,3,3,3,3,3,3,3,3,1,1,2,2,2,2,2,2,1,
1,3,3,3,3,1,1,1,1,1,1,1,1,1,1,1,1,3,3,3,3,3,3,1,1,1,1,1,1,3,3,3,3,3,3,3,3,3,3,3,3,1,1,1,1,1,1,1,1,1,
1,3,3,3,3,1,1,1,1,1,1,1,1,1,1,3,3,3,3,3,3,3,3,3,1,1,1,2,1,3,3,3,3,3,3,3,3,3,3,3,1,1,1,1,1,1,1,1,1,1,
1,3,1,1,1,1,1,1,1,1,1,1,1,1,1,3,3,3,3,3,3,3,3,3,3,1,1,2,1,1,3,3,3,3,3,3,3,3,3,3,1,1,1,1,1,1,1,1,1,1,
1,1,1,1,1,1,1,1,1,1,1,1,1,1,3,3,3,3,3,3,3,3,3,3,3,1,1,2,1,1,3,3,3,3,3,3,3,3,3,3,1,1,1,1,1,1,3,1,1,1,
1,1,1,1,1,1,1,1,1,1,1,1,1,3,3,3,3,3,3,3,3,3,3,3,3,1,1,2,1,1,3,3,3,3,3,3,3,3,3,3,1,1,1,1,1,1,3,1,1,1,
1,1,1,1,1,1,1,1,1,1,1,1,1,3,3,3,3,3,3,3,3,3,3,3,3,1,1,2,1,1,1,3,3,3,3,3,3,3,3,3,1,1,1,1,1,1,3,3,1,1,
1,1,1,1,1,2,1,2,1,1,1,1,3,3,3,3,3,3,3,3,3,3,3,3,1,1,1,1,1,1,2,2,2,2,2,2,2,2,2,2,2,2,2,2,2,2,2,2,2,1,
1,1,1,1,1,2,1,2,2,2,1,3,3,3,3,3,3,3,3,3,3,3,3,3,1,1,1,1,1,1,2,2,2,2,2,2,2,2,2,2,2,2,2,2,2,2,2,2,2,1,
1,1,1,1,1,2,1,1,1,2,1,3,3,3,3,3,3,3,3,3,3,3,3,3,1,1,1,2,1,1,1,1,3,3,3,3,3,3,1,1,1,1,1,1,1,1,3,3,1,1,
1,2,2,2,2,2,1,1,1,2,1,3,3,3,3,3,3,3,3,3,3,3,3,3,1,1,1,2,1,1,1,1,1,3,3,3,3,1,1,1,1,1,1,1,1,1,3,3,1,1,
1,2,1,1,1,2,1,1,1,2,1,3,3,3,3,3,3,3,3,3,3,3,3,1,1,1,1,2,1,1,1,1,1,1,3,3,1,1,1,1,1,1,1,1,1,3,3,3,1,1,
1,2,1,1,1,2,2,2,1,2,1,3,3,3,3,3,3,3,3,3,3,3,3,1,1,1,1,2,1,1,1,1,1,1,1,1,1,1,1,1,1,1,1,1,1,3,3,3,1,1,
1,2,1,1,1,2,1,1,1,2,1,1,3,3,3,3,3,3,3,3,3,3,1,1,1,1,1,1,1,1,1,1,1,1,1,1,1,1,1,1,1,1,1,3,3,3,3,3,1,1,
1,2,1,1,1,1,1,1,1,2,1,1,3,3,3,3,3,3,3,3,3,1,1,1,1,1,1,1,1,1,1,1,1,1,1,1,1,1,1,1,1,3,3,3,3,3,3,3,1,1,
1,2,1,1,1,2,1,1,1,2,1,1,1,3,3,3,3,3,3,3,3,1,1,1,1,1,1,2,1,1,1,1,1,1,1,1,1,1,1,1,1,3,3,3,3,3,3,1,1,1,
1,2,2,2,2,2,2,2,2,2,1,1,1,3,3,3,3,3,3,3,1,1,1,1,1,1,1,2,1,1,1,1,1,1,1,1,1,1,1,1,1,1,1,1,3,3,1,1,1,1
</data>
 </layer>
</map>
